icons/1_Primary/Box.svg

<svg width="1024" height="1024" fill="none" xmlns="http://www.w3.org/2000/svg"><g clip-path="url(#a)"><path d="M512 1024c282.77 0 512-229.23 512-512S794.77 0 512 0 0 229.23 0 512s229.23 512 512 512Z" fill="#728DBE"/><path d="M520.29 416.51a95.475 95.475 0 0 0-84.38 50.75 95.542 95.542 0 0 0-26.481-31.193 95.547 95.547 0 0 0-78.016-17.417 95.551 95.551 0 0 0-37.233 16.97v-80.48a19.09 19.09 0 1 0-38.18 0v158.47a95.52 95.52 0 0 0 179.88 43.21 95.526 95.526 0 0 0 166.251 4.453A95.529 95.529 0 0 0 520.26 416.51m-168.75 152.8a57.277 57.277 0 0 1-52.917-35.353 57.29 57.29 0 0 1-3.265-33.091 57.286 57.286 0 0 1 78.081-41.765A57.284 57.284 0 0 1 408.79 512a57.313 57.313 0 0 1-57.28 57.3m168.78 0a57.281 57.281 0 0 1-11.173-113.458A57.283 57.283 0 0 1 577.58 512a57.3 57.3 0 0 1-57.29 57.3ZM764 575.58c6.58 8.44 4.69 20.16-4.38 26.43s-21.83 4.67-28.86-3.51l-44.66-54.74-44.66 54.74c-7 8.18-19.78 9.78-28.84 3.51-9.06-6.27-10.95-18-4.34-26.43l51.89-63.69-51.89-63.81c-6.61-8.42-4.71-20.17 4.34-26.42s21.88-4.68 28.84 3.48l44.68 54.81 44.72-54.81a22 22 0 0 1 28.86-3.48c9.07 6.24 11 18 4.39 26.42l-52 63.81L764 575.58Z" fill="#fff"/></g><defs><clipPath id="a"><path fill="#fff" d="M0 0h1024v1024H0z"/></clipPath></defs></svg>

<svg width="1024" height="1024" viewBox="0 0 1024 1024" fill="none" xmlns="http://www.w3.org/2000/svg">
<g clip-path="url(#clip0_2_1716)">
<path d="M512 1024C794.77 1024 1024 794.77 1024 512C1024 229.23 794.77 0 512 0C229.23 0 0 229.23 0 512C0 794.77 229.23 1024 512 1024Z" fill="#728DBE"/>
<path d="M520.29 416.51C502.942 416.505 485.92 421.227 471.053 430.169C456.187 439.11 444.037 451.933 435.91 467.26C429.439 455.072 420.405 444.43 409.429 436.067C398.454 427.703 385.797 421.815 372.33 418.809C358.862 415.802 344.903 415.748 331.413 418.65C317.922 421.552 305.22 427.341 294.18 435.62V355.14C294.18 350.077 292.169 345.221 288.589 341.641C285.009 338.061 280.153 336.05 275.09 336.05C270.027 336.05 265.171 338.061 261.591 341.641C258.011 345.221 256 350.077 256 355.14V513.61C256.348 534.791 263.728 555.256 276.978 571.785C290.229 588.314 308.598 599.969 329.196 604.917C349.795 609.865 371.454 607.826 390.766 599.119C410.079 590.412 425.949 575.532 435.88 556.82C443.808 571.76 455.561 584.328 469.938 593.238C484.314 602.149 500.799 607.083 517.707 607.536C534.614 607.988 551.339 603.944 566.172 595.816C581.005 587.688 593.414 575.768 602.131 561.273C610.848 546.778 615.56 530.229 615.786 513.317C616.012 496.404 611.744 479.735 603.417 465.013C595.091 450.29 583.005 438.042 568.395 429.521C553.785 420.999 537.174 416.509 520.26 416.51M351.51 569.31C340.182 569.31 329.109 565.951 319.69 559.658C310.271 553.366 302.929 544.422 298.593 533.957C294.257 523.492 293.121 511.976 295.328 500.866C297.536 489.756 302.989 479.549 310.996 471.537C319.004 463.525 329.208 458.068 340.317 455.854C351.426 453.641 362.942 454.771 373.409 459.101C383.876 463.432 392.824 470.769 399.122 480.185C405.42 489.601 408.784 500.672 408.79 512C408.787 527.192 402.752 541.762 392.011 552.507C381.27 563.252 366.703 569.292 351.51 569.3M520.29 569.3C508.962 569.298 497.89 565.937 488.472 559.643C479.054 553.349 471.714 544.403 467.379 533.938C463.045 523.472 461.911 511.956 464.12 500.846C466.33 489.736 471.784 479.531 479.793 471.52C487.803 463.51 498.007 458.054 509.117 455.842C520.226 453.631 531.742 454.763 542.209 459.095C552.675 463.428 561.622 470.766 567.918 480.183C574.214 489.6 577.576 500.672 577.58 512C577.58 527.195 571.544 541.768 560.801 552.513C550.057 563.259 535.485 569.297 520.29 569.3ZM764 575.58C770.58 584.02 768.69 595.74 759.62 602.01C750.55 608.28 737.79 606.68 730.76 598.5L686.1 543.76L641.44 598.5C634.44 606.68 621.66 608.28 612.6 602.01C603.54 595.74 601.65 584.01 608.26 575.58L660.15 511.89L608.26 448.08C601.65 439.66 603.55 427.91 612.6 421.66C621.65 415.41 634.48 416.98 641.44 425.14L686.12 479.95L730.84 425.14C734.405 421.149 739.301 418.595 744.613 417.954C749.926 417.314 755.289 418.631 759.7 421.66C768.77 427.9 770.7 439.66 764.09 448.08L712.09 511.89L764 575.58Z" fill="white"/>
</g>
<defs>
<clipPath id="clip0_2_1716">
<rect width="1024" height="1024" fill="white"/>
</clipPath>
</defs>
</svg>
